X: 9
T: Loop String Polka
C: Armand Aromin
H: 8/31/04
M: 2/4
L: 1/8
R: Polka
K: Ador
e>f ge | fd eA | e>f ge | fb bf |
e>f ge | fd eA | e>f ge | dB A2 :|
dB eA | dB eA | e>f ge | fb bf |
dB eA | dB eA | e>f ge | dB A2 :|
